packages/assets/static/images/icons/swimming-pool.svg

<svg width="24" height="24" viewBox="0 0 24 24" xmlns="http://www.w3.org/2000/svg">
<path d="M8.24994 14.0058C8.54831 14.0058 8.83446 13.8873 9.04543 13.6763C9.25641 13.4653 9.37494 13.1792 9.37494 12.8808V12.7505H14.6249V13.0589C14.6249 13.3573 14.7435 13.6434 14.9544 13.8544C15.1654 14.0654 15.4516 14.1839 15.7499 14.1839C16.0483 14.1839 16.3345 14.0654 16.5454 13.8544C16.7564 13.6434 16.8749 13.3573 16.8749 13.0589V3.00049C16.8749 2.70212 16.7564 2.41597 16.5454 2.20499C16.3345 1.99401 16.0483 1.87549 15.7499 1.87549C15.4516 1.87549 15.1654 1.99401 14.9544 2.20499C14.7435 2.41597 14.6249 2.70212 14.6249 3.00049V3.75049H9.37494V3.00049C9.37494 2.70212 9.25641 2.41597 9.04543 2.20499C8.83446 1.99401 8.54831 1.87549 8.24994 1.87549C7.95157 1.87549 7.66542 1.99401 7.45444 2.20499C7.24347 2.41597 7.12494 2.70212 7.12494 3.00049V12.8808C7.12494 13.1792 7.24347 13.4653 7.45444 13.6763C7.66542 13.8873 7.95157 14.0058 8.24994 14.0058ZM9.37494 10.5005V9.37549H14.6249V10.5005H9.37494ZM14.6249 6.00049V7.12549H9.37494V6.00049H14.6249ZM1.87494 15.3755C1.87494 15.0771 1.99347 14.791 2.20444 14.58C2.41542 14.369 2.70157 14.2505 2.99994 14.2505C4.46525 14.2505 5.24994 14.7708 5.87431 15.188C6.38056 15.5255 6.71806 15.7505 7.49994 15.7505C8.28181 15.7505 8.61838 15.5274 9.12556 15.188C9.75275 14.7689 10.5318 14.2505 11.999 14.2505C13.4662 14.2505 14.249 14.7708 14.8734 15.188C15.3806 15.5255 15.7171 15.7505 16.4999 15.7505C17.2828 15.7505 17.6193 15.5274 18.1256 15.188C18.7537 14.7689 19.5318 14.2505 20.9999 14.2505C21.2983 14.2505 21.5845 14.369 21.7954 14.58C22.0064 14.791 22.1249 15.0771 22.1249 15.3755C22.1249 15.6739 22.0064 15.96 21.7954 16.171C21.5845 16.382 21.2983 16.5005 20.9999 16.5005C20.2153 16.5005 19.8806 16.7236 19.3734 17.063C18.7462 17.4821 17.9671 18.0005 16.4999 18.0005C15.0328 18.0005 14.2499 17.4802 13.6256 17.063C13.1184 16.7255 12.7818 16.5005 11.999 16.5005C11.2162 16.5005 10.8806 16.7236 10.3734 17.063C9.74619 17.4821 8.96713 18.0005 7.49994 18.0005C6.03275 18.0005 5.24994 17.4802 4.62556 17.063C4.11931 16.7255 3.78181 16.5005 2.99994 16.5005C2.70157 16.5005 2.41542 16.382 2.20444 16.171C1.99347 15.96 1.87494 15.6739 1.87494 15.3755ZM22.1249 19.5005C22.1249 19.7989 22.0064 20.085 21.7954 20.296C21.5845 20.507 21.2983 20.6255 20.9999 20.6255C20.2153 20.6255 19.8806 20.8486 19.3734 21.188C18.7462 21.607 17.9671 22.1255 16.4999 22.1255C15.0328 22.1255 14.2499 21.6052 13.6256 21.188C13.1184 20.8505 12.7818 20.6255 11.999 20.6255C11.2162 20.6255 10.8806 20.8486 10.3734 21.188C9.74619 21.607 8.96713 22.1255 7.49994 22.1255C6.03275 22.1255 5.24994 21.6052 4.62556 21.188C4.11931 20.8505 3.78181 20.6255 2.99994 20.6255C2.70157 20.6255 2.41542 20.507 2.20444 20.296C1.99347 20.085 1.87494 19.7989 1.87494 19.5005C1.87494 19.2021 1.99347 18.916 2.20444 18.705C2.41542 18.494 2.70157 18.3755 2.99994 18.3755C4.46525 18.3755 5.24994 18.8958 5.87431 19.313C6.38056 19.6505 6.71806 19.8755 7.49994 19.8755C8.28181 19.8755 8.61838 19.6524 9.12556 19.313C9.75275 18.8939 10.5318 18.3755 11.999 18.3755C13.4662 18.3755 14.249 18.8958 14.8734 19.313C15.3806 19.6505 15.7171 19.8755 16.4999 19.8755C17.2828 19.8755 17.6193 19.6524 18.1256 19.313C18.7537 18.8939 19.5318 18.3755 20.9999 18.3755C21.2983 18.3755 21.5845 18.494 21.7954 18.705C22.0064 18.916 22.1249 19.2021 22.1249 19.5005Z"/>
</svg>

<svg viewBox="0 0 24 24" xmlns="http://www.w3.org/2000/svg" aria-hidden="true" fill="currentColor" height="24px" width="24px"><path d="M8.25 14.006a1.125 1.125 0 0 0 1.125-1.125v-.13h5.25v.308a1.125 1.125 0 0 0 2.25 0V3a1.125 1.125 0 1 0-2.25 0v.75h-5.25V3a1.125 1.125 0 0 0-2.25 0v9.88a1.125 1.125 0 0 0 1.125 1.126M9.375 10.5V9.375h5.25v1.126zm5.25-4.5v1.124h-5.25V6zm-12.75 9.375A1.125 1.125 0 0 1 3 14.25c1.465 0 2.25.52 2.874.937.507.337.844.563 1.626.563s1.118-.224 1.626-.563c.627-.42 1.406-.937 2.873-.937s2.25.52 2.874.937c.508.337.844.563 1.627.563s1.12-.224 1.626-.563c.628-.42 1.406-.937 2.874-.937a1.125 1.125 0 1 1 0 2.25c-.785 0-1.12.223-1.627.562-.627.42-1.406.938-2.873.938s-2.25-.52-2.874-.938c-.508-.337-.844-.562-1.627-.562s-1.118.223-1.626.562c-.627.42-1.406.938-2.873.938s-2.25-.52-2.874-.938C4.119 16.725 3.782 16.5 3 16.5a1.125 1.125 0 0 1-1.125-1.126m20.25 4.124A1.125 1.125 0 0 1 21 20.626c-.785 0-1.12.224-1.627.563-.627.419-1.406.938-2.873.938s-2.25-.52-2.874-.938c-.508-.337-.844-.562-1.627-.562s-1.118.223-1.626.562c-.627.419-1.406.938-2.873.938s-2.25-.52-2.874-.938c-.507-.337-.844-.562-1.626-.562a1.125 1.125 0 1 1 0-2.25c1.465 0 2.25.52 2.874.937.507.338.844.563 1.626.563s1.118-.224 1.626-.563c.627-.42 1.406-.937 2.873-.937s2.25.52 2.874.937c.508.338.844.563 1.627.563s1.12-.224 1.626-.563c.628-.42 1.406-.937 2.874-.937a1.125 1.125 0 0 1 1.125 1.124"/></svg>
